SVG/camera-retro.svg

<?xml version="1.0" encoding="utf-8"?>
<!-- Generated by IcoMoon.io -->
<!DOCTYPE svg PUBLIC "-//W3C//DTD SVG 1.1//EN" "http://www.w3.org/Graphics/SVG/1.1/DTD/svg11.dtd">
<svg version="1.1" xmlns="http://www.w3.org/2000/svg" xmlns:xlink="http://www.w3.org/1999/xlink" width="14" height="14" viewBox="0 0 14 14">
<path fill="#444444" d="M7.25 6.5q0-0.109-0.070-0.18t-0.18-0.070q-0.516 0-0.883 0.367t-0.367 0.883q0 0.109 0.070 0.18t0.18 0.070 0.18-0.070 0.070-0.18q0-0.312 0.219-0.531t0.531-0.219q0.109 0 0.18-0.070t0.070-0.18zM9 7.516q0 0.828-0.586 1.414t-1.414 0.586-1.414-0.586-0.586-1.414 0.586-1.414 1.414-0.586 1.414 0.586 0.586 1.414zM1 12h12v-1h-12v1zM10 7.516q0-1.242-0.879-2.121t-2.121-0.879-2.121 0.879-0.879 2.121 0.879 2.121 2.121 0.879 2.121-0.879 0.879-2.121zM2 2.5h3v-1h-3v1zM1 4h12v-2h-6.469l-0.5 1h-5.031v1zM14 2v10q0 0.414-0.293 0.707t-0.707 0.293h-12q-0.414 0-0.707-0.293t-0.293-0.707v-10q0-0.414 0.293-0.707t0.707-0.293h12q0.414 0 0.707 0.293t0.293 0.707z"></path>
</svg>

<svg xmlns="http://www.w3.org/2000/svg" viewBox="0 0 14 14"><path d="M7.25 6.5q0-.11-.07-.18T7 6.25q-.516 0-.883.367T5.75 7.5q0 .11.07.18t.18.07.18-.07.07-.18q0-.312.22-.53T7 6.75q.11 0 .18-.07t.07-.18zM9 7.516q0 .828-.586 1.414T7 9.516 5.586 8.93 5 7.516t.586-1.414T7 5.516t1.414.586T9 7.516zM1 12h12v-1H1v1zm9-4.484q0-1.242-.88-2.12T7 4.515t-2.12.88T4 7.515t.88 2.12 2.12.88 2.12-.88.88-2.12zM2 2.5h3v-1H2v1zM1 4h12V2H6.53l-.5 1H1v1zm13-2v10q0 .414-.293.707T13 13H1q-.414 0-.707-.293T0 12V2q0-.414.293-.707T1 1h12q.414 0 .707.293T14 2z" /></svg>
